X:72
T:GB/7a/72 Salisbury Plain Version 1 of 3
%%VWML:GB-7a-72-0
F:http://www.vwml.org/record/GB/7a/72
C:Transcribed by Simon Furey and Lewis Jones
L:1/4
M:4/4
I:linebreak $
K:Ddor
A | A F E D | A2 G/F/ E | D2 A3/2 B/ | c A G A/B/ | c2 d/c/ B | A2 A3/2 B/ |$ c A G A/B/ | c2 d E | F E D D | A/B/ c d/c/ B | A2 G/F/ E | D3 |]

